X:230
T:Boys of the Town, The
R:jig
H:Another tune with the same name: #229
Z:id:hn-jig-230
M:6/8
K:G
ged BcA|BGE G2A|~B3 ABA|GBd efg|
ged BcA|BGE G2A|~B3 AGA|BGF G3:|
|:def ~g3|eaa eaa|bag e2d|efg efg|
def ~g3|afd efg|edB AGA|BGF G3:|

